X: 1023
T:the Garden of Daisies (A10)
N: page A10
N: heptatonic
R:Set Dance
O:Ireland
M:4/4
K:D
fg|:\
"D"a2af "G"gbag|"D"fefa gfef|"D"dcde fdec|dedc "G"AGFG|\
ABcB dcAG|"D"FEFG "A"ABcA|
"D"dcdf "A"edce|[1 "D"d2 dd defg:|[2"D"d2dc d2|: A2|\
dcde fefg|"A"a2af "D"defg|"A"a2af "D"gbag|
f2 fe defg| "A"a2af "D"gbag|"D"fefa "D"gfef|\
dcde fdec|dedc "G"A2fg| "A"a2af "D"gbag|"D"fefa "D"gfef|
dcde fdec|dedc"G" AGFG| "A"ABcA dcAG|"D"FEFG "A"ABcA|\
"D"dcdf "G"edce|[1"D"d2dc d2:|[2 "D"d2 dd defg|
